X:1
T:Stavanger, LMD
T:Stavanger, LMD
T:C. W. James, 1909
T:Public Domain Courtesy of the Cyber Hymnal™
C:C. W. James, 1909
Z:Public Domain
Z:Courtesy of the Cyber Hymnal™
%%score ( 1 2 ) ( 3 4 )
L:1/8
Q:1/4=88
M:3/4
K:Eb
V:1 treble 
V:2 treble 
V:3 bass 
V:4 bass 
V:1
 [B,E][B,D] [B,E] | [EA]3 [EA] [EA]E | [EG]3 [EG] [DG][DF] | [DF]3 [FB] [F=A][EA] | %4
 [DA]3 [DA] [EG][FB] | [Ee]3 [EG] [_DG][CF] | [Ec]3 [^Fe] [Fd][Fc] | %7
 [GB]3 E !fermata![EG]!fermata![DF] | !fermata!E3 B, DF | (z [FA]) DC B, x3 | %10
 z [B,G] [EG][EG] [EG] x3 | [DG]4- [DG][DF][Ge][Fd] | [Ec]4- [Ec][Ad][Ac][AB] | %13
 [Ge]4- [Ge][EG][_DG][CF] | [Ec]4- [Ec][^Fe][Fd][Fc] | [GB]4- [GB]E!fermata![EG]!fermata![DF] | %16
 (!fermata!z !fermata![B,E]) x5 |] %17
V:2
 x3 | x5 E | x6 | x6 | x6 | x6 | x6 | x3 E x2 | E3 x3 | A4- D D E x | G4- E D C x | x8 | x8 | x8 | %14
 x8 | x5 E x2 | E4- E D C |] %17
V:3
 [E,G,][E,A,] [E,G,] | [E,C]3 [E,C] [E,C][E,_C] | [E,B,]3 [E,B,] [B,,B,][B,,A,] | %3
 [B,,A,]3 [D,A,] F,F, | [B,,F,]3 [B,,F,] [C,E,][D,A,] | [E,G,]3 [E,B,] [A,,B,][A,,A,] | %6
 [A,,A,]3 [=A,,C] [A,,D][A,,E] | [B,,E]3 [_C,=A,] !fermata![B,,B,]!fermata![B,,_A,] | %8
 !fermata![E,G,]3 z3 | z ([B,,F,][B,,F,][B,,G,] [B,,A,]) z3 | %10
 z ([E,B,][E,B,][E,B,] [E,B,])[E,B,][E,B,][E,B,] | [G,,G,=B,]4- [G,,G,B,][G,B,][G,B,][G,B,] | %12
 [C,C]4- [C,C][B,,C][C,B,][D,B,] | [E,B,]4- [E,B,][E,B,][A,,B,][A,,A,] | %14
 [A,,A,]4- [A,,A,][=A,,C][A,,D][A,,E] | [B,,E]4- [B,,E][_C,=A,]!fermata![B,,B,]!fermata![B,,_A,] | %16
 (G,CB,A, !fermata![E,G,]) x2 |] %17
V:4
 x3 | x6 | x6 | x4 F,F, | x6 | x6 | x6 | x6 | x6 | x8 | x8 | x8 | x8 | x8 | x8 | x8 | E,4- x3 |] %17

